svgs/sharp-regular/laptop-arrow-down.svg

<svg xmlns="http://www.w3.org/2000/svg" viewBox="0 0 640 512"><!--! Font Awesome Pro 6.6.0 by @fontawesome - https://fontawesome.com License - https://fontawesome.com/license (Commercial License) Copyright 2024 Fonticons, Inc. --><path d="M256 32L112 32 64 32l0 48 0 240 48 0 0-240 144 0 0-48zM384 80l144 0 0 240 48 0 0-240 0-48-48 0L384 32l0 48zM344 32l-48 0 0 24 0 182.1-39-39-17-17L206.1 216l17 17 80 80 17 17 17-17 80-80 17-17L400 182.1l-17 17-39 39L344 56l0-24zM83.9 432l-32-32 536.2 0-32 32L83.9 432zM576 480l64-64 0-16 0-48-48 0L48 352 0 352l0 48 0 16 64 64 512 0z"/></svg>

<svg xmlns="http://www.w3.org/2000/svg" viewBox="0 0 640 512"><!--! Font Awesome Pro 6.4.0 by @fontawesome - https://fontawesome.com License - https://fontawesome.com/license (Commercial License) Copyright 2023 Fonticons, Inc. --><path d="M256 32H112 64V80 320h48V80H256V32zM384 80H528V320h48V80 32H528 384V80zM344 32H296V56 238.1l-39-39-17-17L206.1 216l17 17 80 80 17 17 17-17 80-80 17-17L400 182.1l-17 17-39 39V56 32zM83.9 432l-32-32H588.1l-32 32H83.9zM576 480l64-64V400 352H592 48 0v48 16l64 64H576z"/></svg>
